X: 4260
T: Bob MacIntosh
R: jig
M: 6/8
K: Amixolydian
d|eg>B A>AA|g>fe f>ed|eg>B A>AA|B>GB g>ed|
eg>B A>AA|g>fe f>ed|B>GG G>GG|B>GB g2 d:|
e>aa d>gg|B>gg e>AA|e>aa d>gg|f>ed ~e2 d|
e>aa d>gg|B>gg e>AA|B>GG G>GG|B>GB g2 d:|

